X:1
T:Alankaar 3 — Triples
C:Exercise
M:none
L:1/4
Q:1/4=90
K:C
% Each scale degree repeated 3× ascending then descending.
CCC DDD | EEE FFF | GGG AAA | BBB ccc | ccc BBB | AAA GGG | FFF EEE | DDD CCC |
